X:16
T:La Péronelle
R:Chanson
O:France
B:Le livre des Chansons (Henri Davenson) n°16
Z:<anamnese@caramail.com> -- http://anamnese.fr.st
M:C|
L:1/8
Q:1/4=100
K:F
A2 | A2 c2 (B3 A/G/|F2) G2 G3 F | E2 D2-D z d2 | d2 d2 (d2 cB|
w:Av' vous point vu___ la Pé-ron-nel-le * que les gens d'armes___
A2) d2 c2 B2 | A4-A z A2 | A2 c2 (B3 A/G/|F2) G2 G3 F |!
w:_ ont em-me-née~? * /.../
 E2 D2-D z A2 | A2 c2 (B3 A/G/|F2) G2 G2 ^F2 | G8 ||
W:Av' vous point vu la Péronnelle que les gens d'armes ont emmenée ?
W:Ils l'ont habillée comme un page : c'est pour passer le Dauphiné.
W:Elles avait trois mignons de frères qui la sont allés pourchasser/
W:Tant l'ont cherchée que l'ont trouvée à la fontaine d'un vert pré, /.../

